src/assets/outline/Note1.svg

<?xml version="1.0" encoding="UTF-8"?>
<svg width="24" height="24" viewBox="0 0 24 24" xmlns="http://www.w3.org/2000/svg">
 <path d="m8 5.75c-0.41 0-0.75-0.34-0.75-0.75v-3c0-0.41 0.34-0.75 0.75-0.75s0.75 0.34 0.75 0.75v3c0 0.41-0.34 0.75-0.75 0.75z"/>
 <path d="m16 5.75c-0.41 0-0.75-0.34-0.75-0.75v-3c0-0.41 0.34-0.75 0.75-0.75s0.75 0.34 0.75 0.75v3c0 0.41-0.34 0.75-0.75 0.75z"/>
 <path d="m15 13.75h-8c-0.41 0-0.75-0.34-0.75-0.75s0.34-0.75 0.75-0.75h8c0.41 0 0.75 0.34 0.75 0.75s-0.34 0.75-0.75 0.75z"/>
 <path d="m12 17.75h-5c-0.41 0-0.75-0.34-0.75-0.75s0.34-0.75 0.75-0.75h5c0.41 0 0.75 0.34 0.75 0.75s-0.34 0.75-0.75 0.75z"/>
 <path d="m15 22.75h-6c-5.62 0-6.75-2.65-6.75-6.93v-6.17c0-4.74 1.6-6.67 5.71-6.9h8.04 0.04c4.11 0.23 5.71 2.16 5.71 6.9v6.17c0 4.28-1.13 6.93-6.75 6.93zm-7-18.5c-2.8 0.16-4.25 1.04-4.25 5.4v6.17c0 3.83 0.73 5.43 5.25 5.43h6c4.52 0 5.25-1.6 5.25-5.43v-6.17c0-4.35-1.44-5.24-4.27-5.4h-7.98z"/>
</svg>

<svg width="24" height="24" viewBox="0 0 24 24"  xmlns="http://www.w3.org/2000/svg">
<path d="M8 5.75C7.59 5.75 7.25 5.41 7.25 5V2C7.25 1.59 7.59 1.25 8 1.25C8.41 1.25 8.75 1.59 8.75 2V5C8.75 5.41 8.41 5.75 8 5.75Z" />
<path d="M16 5.75C15.59 5.75 15.25 5.41 15.25 5V2C15.25 1.59 15.59 1.25 16 1.25C16.41 1.25 16.75 1.59 16.75 2V5C16.75 5.41 16.41 5.75 16 5.75Z" />
<path d="M15 13.75H7C6.59 13.75 6.25 13.41 6.25 13C6.25 12.59 6.59 12.25 7 12.25H15C15.41 12.25 15.75 12.59 15.75 13C15.75 13.41 15.41 13.75 15 13.75Z" />
<path d="M12 17.75H7C6.59 17.75 6.25 17.41 6.25 17C6.25 16.59 6.59 16.25 7 16.25H12C12.41 16.25 12.75 16.59 12.75 17C12.75 17.41 12.41 17.75 12 17.75Z" />
<path d="M15 22.75H9C3.38 22.75 2.25 20.1 2.25 15.82V9.65C2.25 4.91 3.85 2.98 7.96 2.75H16C16.01 2.75 16.03 2.75 16.04 2.75C20.15 2.98 21.75 4.91 21.75 9.65V15.82C21.75 20.1 20.62 22.75 15 22.75ZM8 4.25C5.2 4.41 3.75 5.29 3.75 9.65V15.82C3.75 19.65 4.48 21.25 9 21.25H15C19.52 21.25 20.25 19.65 20.25 15.82V9.65C20.25 5.3 18.81 4.41 15.98 4.25H8Z" />
</svg>
